X:1
T: Dundee City Police
C:
R:Jig
Q:180
K:D
M:6/8
L:1/16
A2|d2f2e2 d4A2|B2d2A2 B4d2|A2B2A2 A2a2f2|f2e2d2 e4A2|d2f2e2 d4A2|B2d2A2 B4d2|A2a2f2 e2d2e2|d6 d6|
d2f2e2 d4A2|B2d2A2 B4d2|A2B2A2 A2a2f2|f2e2d2 e4A2|d2f2e2 d4A2|B2d2A2 B4d2|A2a2f2 e2d2e2|d6 d2f2g2|
a2g2f2 e2d2e2|f2a2A2 B4d2A2|B2A2A2 a2f2f2|e2d2e2 f2g2|a2g2f2 e2d2e2|f2a2A2 B4d2|A2a2f2 e2d2e2|d6 d2f2g2|
a2g2f2 e2d2e2|f2a2A2 B4d2|A2B2A2 A2a2f2|f2e2d2 e4A2|d2f2e2 d4A2|B2d2A2 B4d2|A2a2f2 e2d2e2|d6 d4||
